projects/seb-pictograms/svg/regular/23-Picto-Regular_black.svg

<svg xmlns="http://www.w3.org/2000/svg" viewBox="0 0 170 170"><path d="M130.3 41.5A17.5 17.5 0 10112.8 24a17.5 17.5 0 0017.5 17.5zm0-29A11.5 11.5 0 11118.8 24a11.5 11.5 0 0111.5-11.5zm-90 53.7a17.5 17.5 0 10-17.5-17.5 17.5 17.5 0 0017.5 17.5zm0-29a11.5 11.5 0 11-11.5 11.5 11.5 11.5 0 0111.5-11.5zm115.2 56.9h-.2V67.9a17.4 17.4 0 00-17.2-17.4h-15.5a17.4 17.4 0 00-17.2 17.4v26.2h-40v-1.4A17.4 17.4 0 0048 75.3H32.5a17.4 17.4 0 00-17.2 17.4v1.4H5v6h10.3V165h6V92.7a11.3 11.3 0 0111.2-11.4H48a11.3 11.3 0 0111.3 11.4V165h6v-64.9H165v-6zm-32.9-37.6h15.5a11.3 11.3 0 0111.2 11.4v26.2h-38V67.9a11.3 11.3 0 0111.3-11.4z"/></svg>

<svg id="PIKTO_REGULAR" xmlns="http://www.w3.org/2000/svg" viewBox="0 0 170 170"><title>regular_black</title><path d="M130.3,41.5A17.5,17.5,0,1,0,112.8,24,17.5,17.5,0,0,0,130.3,41.5Zm0-29A11.5,11.5,0,1,1,118.8,24,11.5,11.5,0,0,1,130.3,12.5Z"/><path d="M40.3,66.2A17.5,17.5,0,1,0,22.8,48.7,17.5,17.5,0,0,0,40.3,66.2Zm0-29A11.5,11.5,0,1,1,28.8,48.7,11.5,11.5,0,0,1,40.3,37.2Z"/><path d="M155.5,94.1h-.2V67.9a17.4,17.4,0,0,0-17.2-17.4H122.6a17.4,17.4,0,0,0-17.2,17.4V94.1h-40V92.7A17.4,17.4,0,0,0,48,75.3H32.5A17.4,17.4,0,0,0,15.3,92.7v1.4H5v6H15.3V165h6V92.7A11.3,11.3,0,0,1,32.5,81.3H48A11.3,11.3,0,0,1,59.3,92.7V165h6V100.1H165v-6ZM122.6,56.5h15.5a11.3,11.3,0,0,1,11.2,11.4V94.1h-38V67.9A11.3,11.3,0,0,1,122.6,56.5Z"/></svg>
